icon/ir/no-access-window.svg

<svg viewBox="0 0 24 24" stroke-width="1.5" fill="none" xmlns="http://www.w3.org/2000/svg" height="1em" width="1em">
  <path d="M12 21H4C2.89543 21 2 20.1046 2 19V5C2 3.89543 2.89543 3 4 3H20C21.1046 3 22 3.89543 22 5V13" stroke="currentColor" stroke-linecap="round"/>
  <path d="M2 7L22 7" stroke="currentColor" stroke-linecap="round" stroke-linejoin="round"/>
  <path d="M5 5.01L5.01 4.99889" stroke="currentColor" stroke-linecap="round" stroke-linejoin="round"/>
  <path d="M8 5.01L8.01 4.99889" stroke="currentColor" stroke-linecap="round" stroke-linejoin="round"/>
  <path d="M11 5.01L11.01 4.99889" stroke="currentColor" stroke-linecap="round" stroke-linejoin="round"/>
  <path d="M20.9995 16.05C20.3643 15.402 19.4791 15 18.5 15C16.567 15 15 16.567 15 18.5C15 19.4539 15.3816 20.3187 16.0005 20.95M20.9995 16.05C21.6184 16.6813 22 17.5461 22 18.5C22 20.433 20.433 22 18.5 22C17.5209 22 16.6357 21.598 16.0005 20.95M20.9995 16.05L16.0005 20.95" stroke="currentColor" stroke-linecap="round" stroke-linejoin="round"/>
</svg>

<svg width="24" height="24" stroke-width="1.5" fill="none" xmlns="http://www.w3.org/2000/svg"><path d="M12 21H4a2 2 0 0 1-2-2V5a2 2 0 0 1 2-2h16a2 2 0 0 1 2 2v8" stroke="currentColor" stroke-linecap="round"/><path d="M2 7h20M5 5.01l.01-.011M8 5.01l.01-.011M11 5.01l.01-.011M21 16.05A3.5 3.5 0 1 0 16 20.95m4.998-4.9A3.5 3.5 0 1 1 16 20.95m5-4.9-5 4.9" stroke="currentColor" stroke-linecap="round" stroke-linejoin="round"/></svg>
